svg/fluentui-system-icons/ic_fluent_people_team_32_filled.svg

<svg width="32" height="32" viewBox="0 0 32 32" fill="none" xmlns="http://www.w3.org/2000/svg">
<path d="M16 11C18.2091 11 20 9.20914 20 7C20 4.79086 18.2091 3 16 3C13.7909 3 12 4.79086 12 7C12 9.20914 13.7909 11 16 11ZM10 7.5C10 9.433 8.433 11 6.5 11C4.567 11 3 9.433 3 7.5C3 5.567 4.567 4 6.5 4C8.433 4 10 5.567 10 7.5ZM29 7.5C29 9.433 27.433 11 25.5 11C23.567 11 22 9.433 22 7.5C22 5.567 23.567 4 25.5 4C27.433 4 29 5.567 29 7.5ZM9.37731 13C8.82836 13.6848 8.5 14.5541 8.5 15.5V23C8.5 24.2346 8.79833 25.3996 9.32683 26.4267C8.63182 26.7928 7.84011 27 7 27C4.23858 27 2 24.7614 2 22V15.5C2 14.1193 3.11929 13 4.5 13H9.37731ZM22.6732 26.4267C23.2017 25.3996 23.5 24.2346 23.5 23V15.5C23.5 14.5541 23.1716 13.6848 22.6227 13H27.5C28.8807 13 30 14.1193 30 15.5V22C30 24.7614 27.7614 27 25 27C24.1599 27 23.3682 26.7928 22.6732 26.4267ZM12.5 13C11.1193 13 10 14.1193 10 15.5V23C10 26.3137 12.6863 29 16 29C19.3137 29 22 26.3137 22 23V15.5C22 14.1193 20.8807 13 19.5 13H12.5Z" fill="#212121"/>
</svg>

<svg xmlns="http://www.w3.org/2000/svg" width="32" height="32"><path d="M16 11a4 4 0 1 0 0-8 4 4 0 0 0 0 8Zm-6-3.5a3.5 3.5 0 1 1-7 0 3.5 3.5 0 0 1 7 0Zm19 0a3.5 3.5 0 1 1-7 0 3.5 3.5 0 0 1 7 0ZM9.377 13a3.983 3.983 0 0 0-.877 2.5V23c0 1.235.298 2.4.827 3.427A5 5 0 0 1 2 22v-6.5A2.5 2.5 0 0 1 4.5 13h4.877Zm13.296 13.427A7.468 7.468 0 0 0 23.5 23v-7.5c0-.946-.328-1.815-.877-2.5H27.5a2.5 2.5 0 0 1 2.5 2.5V22a5 5 0 0 1-7.327 4.427ZM12.5 13a2.5 2.5 0 0 0-2.5 2.5V23a6 6 0 0 0 12 0v-7.5a2.5 2.5 0 0 0-2.5-2.5h-7Z"/></svg>
